craft2/public/assets/svgicons/branches/resume-01.svg

<svg xmlns="http://www.w3.org/2000/svg" width="35.525" height="46.188" viewBox="0 0 35.525 46.188"><g stroke="#3B3735" stroke-width="2" stroke-linecap="round" stroke-linejoin="round" stroke-miterlimit="10" fill="none"><path d="M2.008 45.188h31.509c.557 0 1.008-.451 1.008-1.008v-32.197l-10.983-10.983h-21.534c-.557 0-1.008.451-1.008 1.008v42.172c0 .557.451 1.008 1.008 1.008z"/><path d="M24.551 11.983h9.975l-10.984-10.983v9.975c0 .556.452 1.008 1.009 1.008z"/><path d="M7.138 26.506h22"/><path d="M7.138 31.506h22"/><path d="M7.138 36.506h13"/><path d="M16.491 14.299c.606-.746.891-1.761.633-2.848-.279-1.176-1.235-2.129-2.412-2.4-2.157-.497-4.073 1.128-4.073 3.2 0 .774.27 1.481.72 2.039.347.43.209 1.069-.283 1.319-1.703.864-2.942 2.493-3.255 4.5-.083.529.342 1.007.877 1.007h10.462c.536 0 .96-.478.877-1.007-.313-2.007-1.552-3.635-3.255-4.5-.487-.248-.636-.885-.291-1.31z"/></g></svg>

<?xml version="1.0" encoding="utf-8"?>
<!-- Generator: Adobe Illustrator 17.0.0, SVG Export Plug-In . SVG Version: 6.00 Build 0)  -->
<!DOCTYPE svg PUBLIC "-//W3C//DTD SVG 1.1//EN" "http://www.w3.org/Graphics/SVG/1.1/DTD/svg11.dtd">
<svg version="1.1" id="Layer_1" xmlns="http://www.w3.org/2000/svg" xmlns:xlink="http://www.w3.org/1999/xlink" x="0px" y="0px"
	 width="35.525px" height="46.188px" viewBox="0 0 35.525 46.188" enable-background="new 0 0 35.525 46.188" xml:space="preserve">
<g>
	<g>
		<path fill="none" stroke="#3B3735" stroke-width="2" stroke-linecap="round" stroke-linejoin="round" stroke-miterlimit="10" d="
			M2.008,45.188h31.509c0.557,0,1.008-0.451,1.008-1.008V11.983L23.542,1H2.008C1.451,1,1,1.451,1,2.008V44.18
			C1,44.737,1.451,45.188,2.008,45.188z"/>
		<path fill="none" stroke="#3B3735" stroke-width="2" stroke-linecap="round" stroke-linejoin="round" stroke-miterlimit="10" d="
			M24.551,11.983h9.975L23.542,1v9.975C23.542,11.531,23.994,11.983,24.551,11.983z"/>
	</g>
	<g>
		
			<line fill="none" stroke="#3B3735" stroke-width="2" stroke-linecap="round" stroke-linejoin="round" stroke-miterlimit="10" x1="7.138" y1="26.506" x2="29.138" y2="26.506"/>
		
			<line fill="none" stroke="#3B3735" stroke-width="2" stroke-linecap="round" stroke-linejoin="round" stroke-miterlimit="10" x1="7.138" y1="31.506" x2="29.138" y2="31.506"/>
		
			<line fill="none" stroke="#3B3735" stroke-width="2" stroke-linecap="round" stroke-linejoin="round" stroke-miterlimit="10" x1="7.138" y1="36.506" x2="20.138" y2="36.506"/>
		<path fill="none" stroke="#3B3735" stroke-width="2" stroke-linecap="round" stroke-linejoin="round" stroke-miterlimit="10" d="
			M16.491,14.299c0.606-0.746,0.891-1.761,0.633-2.848c-0.279-1.176-1.235-2.129-2.412-2.4c-2.157-0.497-4.073,1.128-4.073,3.2
			c0,0.774,0.27,1.481,0.72,2.039c0.347,0.43,0.209,1.069-0.283,1.319c-1.703,0.864-2.942,2.493-3.255,4.5
			c-0.083,0.529,0.342,1.007,0.877,1.007H19.16c0.536,0,0.96-0.478,0.877-1.007c-0.313-2.007-1.552-3.635-3.255-4.5
			C16.295,15.361,16.146,14.724,16.491,14.299z"/>
	</g>
</g>
</svg>
